src/img/icons/brand-07.svg

<svg width="64" height="64" viewBox="0 0 64 64" fill="none" xmlns="http://www.w3.org/2000/svg">
<path fill-rule="evenodd" clip-rule="evenodd" d="M63 32C63 49.1208 49.1208 63 32 63C14.8792 63 1 49.1208 1 32C1 14.8792 14.8792 0.999999 32 0.999999C49.1208 0.999998 63 14.8792 63 32ZM64 32C64 49.6731 49.6731 64 32 64C14.3269 64 2.17128e-06 49.6731 1.39876e-06 32C6.26248e-07 14.3269 14.3269 -6.26248e-07 32 -1.39876e-06C49.6731 -2.17128e-06 64 14.3269 64 32Z" fill="#1B1B1B"/>
<path fill-rule="evenodd" clip-rule="evenodd" d="M32.0004 2.30187L2.30156 32L32.0004 61.6981L61.6992 32L32.0004 2.30187ZM0.887329 32L32.0004 63.1123L63.1135 32L32.0004 0.887669L0.887329 32Z" fill="#1B1B1B"/>
<path fill-rule="evenodd" clip-rule="evenodd" d="M32 49.5858L49.5858 32L32 14.4142L14.4143 32L32 49.5858ZM51 32L32 13L13.0001 32L32 51L51 32Z" fill="#1B1B1B"/>
<path fill-rule="evenodd" clip-rule="evenodd" d="M31.9999 37.5858L37.5858 32L31.9999 26.4142L26.4141 32L31.9999 37.5858ZM39 32L31.9999 25L24.9999 32L31.9999 39L39 32Z" fill="#1B1B1B"/>
</svg>

<svg xmlns="http://www.w3.org/2000/svg" fill="none" viewBox="0 0 64 64"><path fill="#1B1B1B" fill-rule="evenodd" d="M63 32c0 17.12-13.88 31-31 31C14.88 63 1 49.12 1 32 1 14.88 14.88 1 32 1c17.12 0 31 13.88 31 31zm1 0c0 17.673-14.327 32-32 32C14.327 64 0 49.673 0 32 0 14.327 14.327 0 32 0c17.673 0 32 14.327 32 32z" clip-rule="evenodd"/><path fill="#1B1B1B" fill-rule="evenodd" d="M32 2.302L2.302 32 32 61.698 61.7 32 32 2.302zM.887 32L32 63.112 63.114 32 32 .888.887 32z" clip-rule="evenodd"/><path fill="#1B1B1B" fill-rule="evenodd" d="M32 49.586L49.586 32 32 14.414 14.414 32 32 49.586zM51 32L32 13 13 32l19 19 19-19z" clip-rule="evenodd"/><path fill="#1B1B1B" fill-rule="evenodd" d="M32 37.586L37.586 32 32 26.414 26.414 32 32 37.586zM39 32l-7-7-7 7 7 7 7-7z" clip-rule="evenodd"/></svg>
